X: 53
T: Superlative Sam's Reel
C: Larry Unger
O: Lincoln, Massachusetts
%R: reel
Z: Collected and edited 2014 by John Chambers <jc:trillian.mit.edu>
B: GEMS The Best of the Country Dance and Song Society Diamond Jubilee Music, Dance and Song Contest 1993 p.78 #1
N: Bars 1-4 appear identical to bars 5-8.
M: C|
L: 1/8
K: Am
% - - - - - - - - - - - - - - - - - - - - - - - - -
|:\
"Am"A,2A,A, B,A,A,E | B,A,G,B, A,G,A,B, | "Am"A,2A,A, B,A,A,E | "G"B,A,G,B, "Am"A,4 |
"Am"A,2A,A, B,A,A,E | B,A,G,B, A,G,A,B, | "Am"A,2A,A, B,A,A,E | "G"B,A,G,B, "Am"A,4 |
|:\
"Am"A,B,CD E2EA | cAGA cAcd | "C"edea edea | "C"gecd "E7"e4 |
"Am"AaaA agea | "G"BggB gedB | "Am"Aede ceBc | "G"dBAG "Am"A4 :|
% - - - - - - - - - - - - - - - - - - - - - - - - -

